assets/icons/shopping.svg

<svg fill="none" height="24" viewBox="0 0 24 24" width="24" xmlns="http://www.w3.org/2000/svg"><path d="m21 16h-14c-.26522 0-.51957-.1054-.70711-.2929-.18753-.1875-.29289-.4419-.29289-.7071s.10536-.5196.29289-.7071c.18754-.1875.44189-.2929.70711-.2929h10.44c.6687 0 1.3182-.2233 1.8454-.6346.5272-.4112.9019-.9868 1.0646-1.6354l1.65-6.49c.0375-.14759.0407-.30179.0095-.45083s-.096-.28899-.1895-.40917c-.0973-.12327-.2222-.2219-.3646-.28792-.1425-.06602-.2985-.09756-.4554-.09208h-14.24c-.20631-.58355-.58807-1.089-1.09293-1.44706-.50487-.35806-1.10813-.5512-1.72707-.55294h-.94c-.26522 0-.51957.10536-.70711.29289-.18753.18754-.29289.44189-.29289.70711s.10536.51957.29289.70711c.18754.18753.44189.29289.70711.29289h.94c.22843-.00666.45226.06513.63421.20341.18194.13828.31104.33471.36579.55659l.06.48 1.73 6.76c-.79565.0358-1.54449.3862-2.08178.9741-.53729.588-.81902 1.3653-.78322 2.1609s.38621 1.5445.97414 2.0818 1.36521.819 2.16086.7832h.18c-.16446.4531-.21731.9392-.15407 1.4171s.24072.9335.51739 1.3283c.27667.3947.6444.717 1.07203.9395.42764.2225.9026.3386 1.38465.3386.4821 0 .957-.1161 1.3846-.3386.4277-.2225.7954-.5448 1.0721-.9395.2767-.3948.4541-.8504.5174-1.3283.0632-.4779.0104-.964-.1541-1.4171h2.36c-.1645.4531-.2173.9392-.1541 1.4171.0633.4779.2407.9335.5174 1.3283.2767.3947.6444.717 1.0721.9395.4276.2225.9025.3386 1.3846.3386s.957-.1161 1.3846-.3386c.4277-.2225.7954-.5448 1.0721-.9395.2767-.3948.4541-.8504.5174-1.3283.0632-.4779.0104-.964-.1541-1.4171h.18c.2652 0 .5196-.1054.7071-.2929s.2929-.4419.2929-.7071-.1054-.5196-.2929-.7071-.4419-.2929-.7071-.2929zm-1.28-10-1.31 5.24c-.0548.2219-.1838.4183-.3658.5566-.1819.1383-.4058.2101-.6342.2034h-8.63l-1.5-6zm-9.72 14c-.19778 0-.39112-.0586-.55557-.1685s-.29262-.2661-.36831-.4488-.09549-.3838-.05691-.5778c.03859-.194.13383-.3722.27368-.512.13986-.1399.31804-.2351.51202-.2737s.39509-.0188.57779.0569.3389.2039.4488.3683c.1099.1645.1685.3578.1685.5556 0 .2652-.1054.5196-.2929.7071s-.4419.2929-.7071.2929zm8 0c-.1978 0-.3911-.0586-.5556-.1685-.1644-.1099-.2926-.2661-.3683-.4488s-.0955-.3838-.0569-.5778.1338-.3722.2737-.512c.1398-.1399.318-.2351.512-.2737s.3951-.0188.5778.0569.3389.2039.4488.3683c.1099.1645.1685.3578.1685.5556 0 .2652-.1054.5196-.2929.7071s-.4419.2929-.7071.2929z" fill="#64748b" opacity=".6"/></svg>

<svg width="24" height="24" viewBox="0 0 24 24" fill="none" xmlns="http://www.w3.org/2000/svg">
<g opacity="0.6">
<path d="M21 16H7C6.73478 16 6.48043 15.8946 6.29289 15.7071C6.10536 15.5196 6 15.2652 6 15C6 14.7348 6.10536 14.4804 6.29289 14.2929C6.48043 14.1054 6.73478 14 7 14H17.44C18.1087 14 18.7582 13.7767 19.2854 13.3654C19.8126 12.9542 20.1873 12.3786 20.35 11.73L22 5.24C22.0375 5.09241 22.0407 4.93821 22.0095 4.78917C21.9783 4.64013 21.9135 4.50018 21.82 4.38C21.7227 4.25673 21.5978 4.1581 21.4554 4.09208C21.3129 4.02606 21.1569 3.99452 21 4H6.76C6.55369 3.41645 6.17193 2.911 5.66707 2.55294C5.1622 2.19488 4.55894 2.00174 3.94 2H3C2.73478 2 2.48043 2.10536 2.29289 2.29289C2.10536 2.48043 2 2.73478 2 3C2 3.26522 2.10536 3.51957 2.29289 3.70711C2.48043 3.89464 2.73478 4 3 4H3.94C4.16843 3.99334 4.39226 4.06513 4.57421 4.20341C4.75615 4.34169 4.88525 4.53812 4.94 4.76L5 5.24L6.73 12C5.93435 12.0358 5.18551 12.3862 4.64822 12.9741C4.11093 13.5621 3.8292 14.3394 3.865 15.135C3.9008 15.9306 4.25121 16.6795 4.83914 17.2168C5.42707 17.7541 6.20435 18.0358 7 18H7.18C7.01554 18.4531 6.96269 18.9392 7.02593 19.4171C7.08917 19.895 7.26665 20.3506 7.54332 20.7454C7.81999 21.1401 8.18772 21.4624 8.61535 21.6849C9.04299 21.9074 9.51795 22.0235 10 22.0235C10.4821 22.0235 10.957 21.9074 11.3846 21.6849C11.8123 21.4624 12.18 21.1401 12.4567 20.7454C12.7334 20.3506 12.9108 19.895 12.9741 19.4171C13.0373 18.9392 12.9845 18.4531 12.82 18H15.18C15.0155 18.4531 14.9627 18.9392 15.0259 19.4171C15.0892 19.895 15.2666 20.3506 15.5433 20.7454C15.82 21.1401 16.1877 21.4624 16.6154 21.6849C17.043 21.9074 17.5179 22.0235 18 22.0235C18.4821 22.0235 18.957 21.9074 19.3846 21.6849C19.8123 21.4624 20.18 21.1401 20.4567 20.7454C20.7334 20.3506 20.9108 19.895 20.9741 19.4171C21.0373 18.9392 20.9845 18.4531 20.82 18H21C21.2652 18 21.5196 17.8946 21.7071 17.7071C21.8946 17.5196 22 17.2652 22 17C22 16.7348 21.8946 16.4804 21.7071 16.2929C21.5196 16.1054 21.2652 16 21 16ZM19.72 6L18.41 11.24C18.3552 11.4619 18.2262 11.6583 18.0442 11.7966C17.8623 11.9349 17.6384 12.0067 17.41 12H8.78L7.28 6H19.72ZM10 20C9.80222 20 9.60888 19.9414 9.44443 19.8315C9.27998 19.7216 9.15181 19.5654 9.07612 19.3827C9.00043 19.2 8.98063 18.9989 9.01921 18.8049C9.0578 18.6109 9.15304 18.4327 9.29289 18.2929C9.43275 18.153 9.61093 18.0578 9.80491 18.0192C9.99889 17.9806 10.2 18.0004 10.3827 18.0761C10.5654 18.1518 10.7216 18.28 10.8315 18.4444C10.9414 18.6089 11 18.8022 11 19C11 19.2652 10.8946 19.5196 10.7071 19.7071C10.5196 19.8946 10.2652 20 10 20ZM18 20C17.8022 20 17.6089 19.9414 17.4444 19.8315C17.28 19.7216 17.1518 19.5654 17.0761 19.3827C17.0004 19.2 16.9806 18.9989 17.0192 18.8049C17.0578 18.6109 17.153 18.4327 17.2929 18.2929C17.4327 18.153 17.6109 18.0578 17.8049 18.0192C17.9989 17.9806 18.2 18.0004 18.3827 18.0761C18.5654 18.1518 18.7216 18.28 18.8315 18.4444C18.9414 18.6089 19 18.8022 19 19C19 19.2652 18.8946 19.5196 18.7071 19.7071C18.5196 19.8946 18.2652 20 18 20Z" fill="#64748B"/>
</g>
</svg>
